X: 235
T: Wuhua qiang
L: 1/8
M: 2/4
K: Bb
zc2d [I:setbarnb 1]| 
B3c | 
zB2B | 
B G/ B/c2 | 
z f d f | 
c dB2 | 
G c/ d/ A G | 
F4 | 
z B G F | 
B4 | 
B G/ B/c2 | 
z f d f | 
c d/ c/ B A/ G/ | 
F G/ F/ z B | 
f gB2 | 
c/ f/ d/ c/ B B- | 
B cB2 | 
zD2G | 
F2G D | 
F2z2 |]

@@@ Tune index: 9109
